X:9
T:Dusty Miller
Z: id:dc-slipjig-8
M:9/8
L:1/8
K:A Major
c2e e2B cBA|F2B B2c dcB|c2e e2B cBA|E2A A2B cBA:|!
c2e f2g aga|b2B B2c dcB|c2e f2g a2b|a2f e2d cBA:|!

